X: 1
T: the Quinie Fae Rhynie
R: reel
M: 4/4
L: 1/8
K: Emin
[| E2GE D2GA | BA (3AAA BAGD | E2GE D2Bc | dBAc BAGD |
|  E2GE D2GA | BA (3AAA BAGD | E2GE D2Bc | dBAc BGAB ||
|| c3c cBAc | B3B BAGB | AF (3FFF AFEF | GDGA BGAB |
|  c3c cBAc | B3B BAGB | AF (3FFF AFEF | GDBA G3D |]
